X:2
T:Reprise - Cest une dure despartie
T:Contratenor
C:Tielman Susato
S:Tielman Susato: Danserye (1551)
R:Basse dance
M:3/2
L:1/1
T: Altus
N:Original clef, C on second line
K:C -8va
%%MIDI transpose -12
|:eee|feg|ee2|c2z|ccG|Gee|cd2|B2z:|
|:G>AB|G>AB|ce2|cfe|d>c A/2B/2|cee|dgg|e2z|
eed|fed|ga2|f>ed|egf|eA>B|cd2|B2z:|
